client/filepreviewer/pdfjs/web/images/toolbarButton-editorHighlight.svg

<svg width="17" height="16" viewBox="0 0 17 16" fill="none" xmlns="http://www.w3.org/2000/svg">
    <g>
      <path fill-rule="evenodd" clip-rule="evenodd" d="M7.10918 11.66C7.24918 11.8 7.43918 11.88 7.63918 11.88C7.83918 11.88 8.02918 11.8 8.16918 11.66L14.9192 4.91C15.2692 4.57 15.4592 4.11 15.4592 3.62C15.4592 3.13 15.2692 2.67 14.9192 2.33L13.1292 0.54C12.7892 0.19 12.3292 0 11.8392 0C11.3492 0 10.8892 0.2 10.5492 0.54L3.79918 7.29C3.50918 7.58 3.50918 8.06 3.79918 8.35L4.38988 8.9407L1.40918 11.93H5.64918L6.51419 11.065L7.10918 11.66ZM7.63918 10.07L5.38918 7.82V7.81L7.8648 5.33438L10.1198 7.58938L7.63918 10.07ZM11.1805 6.52872L13.8592 3.85C13.9892 3.72 13.9892 3.52 13.8592 3.39L12.0692 1.6C11.9892 1.52 11.8892 1.5 11.8392 1.5C11.8392 1.5 11.6892 1.51 11.6092 1.59L8.92546 4.27372L11.1805 6.52872Z" fill="#000"/>
      <path d="M0.40918 14H15.4092V16H0.40918V14Z" fill="#000"/>
    </g>
  </svg>

<svg xmlns="http://www.w3.org/2000/svg" width="17" height="16" fill="none"><g fill="#000"><path fill-rule="evenodd" d="M7.11 11.66a.75.75 0 0 0 1.06 0l6.75-6.75c.35-.34.54-.8.54-1.29s-.19-.95-.54-1.29L13.13.54c-.34-.35-.8-.54-1.29-.54s-.95.2-1.29.54L3.8 7.29c-.29.29-.29.77 0 1.06l.59.59-2.98 2.99h4.24l.864-.865zm.53-1.59L5.39 7.82v-.01l2.475-2.476L10.12 7.59zm3.54-3.541 2.68-2.679a.32.32 0 0 0 0-.46L12.07 1.6a.34.34 0 0 0-.23-.1s-.15.01-.23.09L8.924 4.274z" clip-rule="evenodd"/><path d="M.41 14h15v2h-15z"/></g></svg>
